build/images/icons/speach-bubble.svg

<svg xmlns="http://www.w3.org/2000/svg" width="17" height="15"><path d="M9.416 12.358c-.573 0-1.134-.165-1.676-.243-2.191 2.771-5.647 2.225-5.647 2.225 2.441-1.155 2.391-3.069 1.957-3.324C2.134 9.89.982 8.176.982 6.255c0-3.39 3.727-6.139 8.434-6.139 4.708 0 7.577 2.749 7.577 6.139 0 3.392-2.869 6.103-7.577 6.103zM5.242 4.875a1.5 1.5 0 100 3 1.5 1.5 0 000-3zm3.75 0a1.5 1.5 0 100 3 1.5 1.5 0 000-3zm3.75 0a1.5 1.5 0 100 3 1.5 1.5 0 000-3z"/></svg>

<svg 
 xmlns="http://www.w3.org/2000/svg"
 xmlns:xlink="http://www.w3.org/1999/xlink"
 width="17px" height="15px">
<path 
 d="M9.416,12.358 C8.843,12.358 8.282,12.193 7.740,12.115 C5.549,14.886 2.093,14.340 2.093,14.340 C4.534,13.185 4.484,11.271 4.050,11.016 C2.134,9.890 0.982,8.176 0.982,6.255 C0.982,2.865 4.709,0.116 9.416,0.116 C14.124,0.116 16.993,2.865 16.993,6.255 C16.993,9.647 14.124,12.358 9.416,12.358 ZM5.242,4.875 C4.414,4.875 3.742,5.546 3.742,6.375 C3.742,7.203 4.414,7.875 5.242,7.875 C6.071,7.875 6.742,7.203 6.742,6.375 C6.742,5.546 6.071,4.875 5.242,4.875 ZM8.992,4.875 C8.164,4.875 7.492,5.546 7.492,6.375 C7.492,7.203 8.164,7.875 8.992,7.875 C9.821,7.875 10.492,7.203 10.492,6.375 C10.492,5.546 9.821,4.875 8.992,4.875 ZM12.742,4.875 C11.914,4.875 11.242,5.546 11.242,6.375 C11.242,7.203 11.914,7.875 12.742,7.875 C13.571,7.875 14.242,7.203 14.242,6.375 C14.242,5.546 13.571,4.875 12.742,4.875 Z"/>
</svg>
